src/asset/24px/attention.svg

<svg width="24" height="24" viewBox="0 0 24 24" fill="none" xmlns="http://www.w3.org/2000/svg">
<path fill-rule="evenodd" clip-rule="evenodd" d="M12 3.99973C7.58172 3.99973 4 7.58145 4 11.9997C4 16.418 7.58172 19.9997 12 19.9997C16.4183 19.9997 20 16.418 20 11.9997C20 7.58145 16.4183 3.99973 12 3.99973ZM2 11.9997C2 6.47688 6.47715 1.99973 12 1.99973C17.5228 1.99973 22 6.47688 22 11.9997C22 17.5226 17.5228 21.9997 12 21.9997C6.47715 21.9997 2 17.5226 2 11.9997Z" fill="#808080"/>
<path d="M10.5833 7.53376C10.5636 7.24489 10.7926 6.99973 11.0821 6.99973H12.9179C13.2074 6.99973 13.4364 7.24489 13.4167 7.53376L13.0005 13.634C12.9826 13.8964 12.7646 14.1 12.5017 14.1H11.4983C11.2354 14.1 11.0174 13.8964 10.9995 13.634L10.5833 7.53376ZM12 17.9997C11.5729 17.9997 11.2135 17.8651 10.9219 17.5958C10.6406 17.3161 10.5 16.9795 10.5 16.5859C10.5 16.1923 10.6406 15.866 10.9219 15.6071C11.2031 15.3378 11.5625 15.2031 12 15.2031C12.4375 15.2031 12.7969 15.3378 13.0781 15.6071C13.3594 15.866 13.5 16.1923 13.5 16.5859C13.5 16.9795 13.3542 17.3161 13.0625 17.5958C12.7812 17.8651 12.4271 17.9997 12 17.9997Z" fill="#808080"/>
</svg>

<svg width="24" height="24" fill="none" xmlns="http://www.w3.org/2000/svg"><path fill-rule="evenodd" clip-rule="evenodd" d="M12 4a8 8 0 100 16 8 8 0 000-16zM2 12C2 6.477 6.477 2 12 2s10 4.477 10 10-4.477 10-10 10S2 17.523 2 12z" fill="gray"/><path d="M10.583 7.534a.5.5 0 01.5-.534h1.835a.5.5 0 01.499.534l-.416 6.1a.5.5 0 01-.5.466h-1.003a.5.5 0 01-.498-.466l-.417-6.1zM12 18c-.427 0-.787-.135-1.078-.404a1.373 1.373 0 01-.422-1.01c0-.394.14-.72.422-.979.281-.27.64-.404 1.078-.404.438 0 .797.135 1.078.404.281.259.422.585.422.979s-.146.73-.438 1.01c-.28.27-.635.404-1.062.404z" fill="gray"/></svg>
